weixin/Spring/horse_assets/svgblock_3.svg

<?xml version="1.0" encoding="utf-8"?>
<!-- Generator: Adobe Illustrator 17.0.0, SVG Export Plug-In . SVG Version: 6.00 Build 0)  -->
<!DOCTYPE svg PUBLIC "-//W3C//DTD SVG 1.1//EN" "http://www.w3.org/Graphics/SVG/1.1/DTD/svg11.dtd">
<svg version="1.1" id="图层_1" xmlns="http://www.w3.org/2000/svg" xmlns:xlink="http://www.w3.org/1999/xlink" x="0px" y="0px"
	 width="401px" height="225px" viewBox="0 0 401 225" enable-background="new 0 0 401 225" xml:space="preserve">
<g transform="translate(217.05,119.1)">
	<path fill="#BDF109" d="M-38.75,51.85l-0.3-0.4l0.5,1.7L-38.75,51.85z M-64.35,32.3l-1.8,2.65c-0.467,0.733-0.717,1.7-0.75,2.9
		c-0.033,1.1,0.133,2.1,0.5,3l3.7,1.1C-62.967,38.583-63.517,35.367-64.35,32.3z M-99.85-36.85l0.1-0.2L-100-37.1l-0.35,0.1
		l-0.4,0.35l-0.2-0.15l-0.5,0.35l0.7-0.8c-0.9,0.433-1.417,0.783-1.55,1.05l-0.4,0.2L-99.85-36.85z M-187.75-8.7l-2-0.5l-2.3,0.2
		L-187.75-8.7z M-190.95-9.45l-0.4-0.1l-4,0.35l3,0.2l0.6-0.05c0.267-0.033,0.133-0.067-0.4-0.1c-0.567-0.033-0.717-0.083-0.45-0.15
		L-190.95-9.45z M-186.35-10.25v-0.2l0.15,0.05l3.65-0.15l-2.75-0.4l-4.05,0.4l1.8,0.35L-186.35-10.25z M-197.75-11.35l0.05-0.15
		l-0.2-0.05l-0.45,0.1L-197.75-11.35z M-192.85-9.85L-193.6-10l-2,0.6L-192.85-9.85z M-192.85-12.05l-0.9-0.15l-2.45,0.4l5.45,1
		l4.2-0.5l-3.65-0.95L-192.85-12.05z M-188.4-16.95v-0.25l9.15,0.8l0.8-0.05l0.55-0.45l-2.45-0.25l-0.85,0.05l-1.2,0.25l0.95-0.25
		h-0.9v-0.15l-0.7-0.05c-1.5,0.2-1.8,0.167-0.9-0.1h0.1l-1.05-0.2l-8.85,0.4l7.15,0.6l0.05-0.15L-188.4-16.95z M-187.65-13.4
		l0.05-0.3l4.75,0.7l3.35-0.15c-3.5-0.067-4.633-0.267-3.4-0.6l0.15-0.05l-3.1-0.5l-2.8,0.1l-1.6-0.2l-2.65,0.2l6.85,1.2v-0.15
		L-187.65-13.4z M-191.05-14.7l-0.05-0.15l-3.45,0.4l0.4,0.05L-191.05-14.7z M-189.85-15.35l-0.45-0.1h0.2l-8.4-0.75h-1.35l-2.8,1
		l6.3,0.6h0.05c-0.133-0.033-0.2-0.083-0.2-0.15l0.55,0.1L-189.85-15.35z M-182.45-20.3l-2.45,0.55c2.333,0.133,4.85,0.167,7.55,0.1
		c2.767-0.033,3.783-0.15,3.05-0.35h-1.65v-0.25l-5-0.15l-0.75,0.15L-182.45-20.3z M-186-19.55l-0.9,0.1l2.55,0.15v-0.1l-1.65-0.1
		V-19.55z M-205.35-15.3l2.35,0.1l2.2-0.9L-205.35-15.3z M-205.15-15.55c-0.6,0.033-0.767,0.017-0.5-0.05l6.1-0.9l0.15-0.05v-0.1
		c-2.6,0.133-4.967,0.517-7.1,1.15l-0.6,0.2h1.6l0.8-0.2C-204.4-15.6-204.55-15.617-205.15-15.55z M-202.9-17.4l-0.9-0.2l-6.7,0.6
		c-1.5,0.633-3.083,1.533-4.75,2.7l6.95-1c2.533-1.067,5.617-1.683,9.25-1.85L-202.9-17.4z M113.6,19.15
		c-3,0.633-6.583,1.75-10.75,3.35L91.7,27.1l0.55,0.35c1,0.667,2.767,1.467,5.3,2.4c2.4,1.167,4.4,2.85,6,5.05l0.3,0.85l0.15,1.5
		c1.733-0.667,3.017-1.567,3.85-2.7C111.883,29.017,113.8,23.883,113.6,19.15z M100.25-101.55l0.45-0.6L99.8-102
		c-2.1,0.733-3.567,1.1-4.4,1.1c1-0.333,2.467-0.9,4.4-1.7l0.9-0.25h4.7l-0.1-0.95l-0.9-0.45l-0.65-0.65l0.35,0.05l3.05-0.05
		l-1.25-0.1c-0.567-0.167-1.067-0.467-1.5-0.9l5.05-0.2l6-1.45l4.45-0.2l1.45,0.75c-0.467-1.933-0.7-4.05-0.7-6.35
		c0-2.6,0.333-4.517,1-5.75c0.8,0.633,1.783,1.967,2.95,4c0.967,1.633,2.05,2.65,3.25,3.05l1.1-0.5c0.467-0.3,0.7-0.133,0.7,0.5
		c0.733,0.067,1.05-0.483,0.95-1.65c-0.133-1.667-0.167-2.583-0.1-2.75c0.433-0.6,0.817,0.133,1.15,2.2c0.4,2.467,0.917,3.8,1.55,4
		c0.8-0.1,1.933,0.917,3.4,3.05c0.3-0.167,0.7-0.017,1.2,0.45c0.533,0.5,1,1.167,1.4,2l1,2.25l0.85,0.25
		c0.4-0.067,1.033,0.483,1.9,1.65c0.667,0.9,1.15,0.933,1.45,0.1c0.233,0.5,1.033,1.4,2.4,2.7c1.033,1.033,1.617,2.133,1.75,3.3
		l7.35,7.8l6.7,9.85c2.567,4.5,6.05,9.033,10.45,13.6l6,5.2c1.533,1.7,2.733,3.9,3.6,6.6l0.45,2.05c0.067,0.933-0.05,1.55-0.35,1.85
		c-0.467,0.467-0.667,1.333-0.6,2.6c0.1,1.267-0.017,2.083-0.35,2.45l-1.45,2.05c-0.567,0.767-1.217,1.2-1.95,1.3l-6.85,1.2
		l-5.9-0.55c-0.833-0.767-1.4-1.517-1.7-2.25l-0.6-0.9l-0.55-0.55l-9.7-5.7c-1.367-0.6-2.933-1.433-4.7-2.5
		c-1.5-0.9-2.733-1.5-3.7-1.8l-11-2.7c-1.833-0.333-3.65-0.883-5.45-1.65c-0.967-0.367-3.083-1.433-6.35-3.2l-3.8-0.05
		c-2.3,0.4-4.367,2.183-6.2,5.35c-0.733,1.3-1.9,3.65-3.5,7.05l-1.8,5.35l-4.95,9.5c-2.067,3.9-3.367,7.217-3.9,9.95
		c-0.2,1.1-0.233,2.6-0.1,4.5c0.167,2.067,0.2,3.533,0.1,4.4c-0.133,1.033-0.583,2.633-1.35,4.8c-0.733,2.167-1.167,3.8-1.3,4.9
		l-0.4,3.85l0.55,2.35c2.367,0.733,6.15,1.55,11.35,2.45c5.433,0.933,9.433,1.767,12,2.5c0.8,0.267,1.4,0.567,1.8,0.9
		c2.1,1.5,3.483,3.55,4.15,6.15c0.533,2.033,0.617,4.467,0.25,7.3c-0.133,1.167-0.917,2.45-2.35,3.85c-1.7,1.7-2.767,3.033-3.2,4
		c-2.233,5.1-4.867,10.183-7.9,15.25h-0.05l-0.2,0.2l-5.7,1.95c-1.333,0.5-3.183,1.567-5.55,3.2l-5.4,5.1
		c-3.033,2.733-4.967,3.717-5.8,2.95c-1.1-0.967-1.833-2.333-2.2-4.1c-0.367-1.6-0.4-3.35-0.1-5.25l-13.25,6.7
		c-0.967,0.467-1.783,0.617-2.45,0.45c-1.9-0.533-4.5-1.7-7.8-3.5c-3.067-1.7-5.167-2.65-6.3-2.85l-5.2-0.75l-8.45-2.8
		c0.367-1.2,1.1-2.35,2.2-3.45c1.3-1.333,2.9-2.6,4.8-3.8c2.333-1.467,4.367-2.3,6.1-2.5c1.4,0.733,2.75,2.217,4.05,4.45
		c1.333,2.333,2.633,3.867,3.9,4.6c1.267,0.467,2.317,0.167,3.15-0.9c1.2-1.533,1.917-2.35,2.15-2.45l8.85,0.45
		c3.167-0.4,6.217-1.217,9.15-2.45L75.4,38.2l-11.9-3.25c-3.033-0.9-5.333-1.433-6.9-1.6c-2.633-0.233-6.217-0.867-10.75-1.9
		c-3.6-0.833-5.517-1.15-5.75-0.95l-0.2-0.25c-16.367-1-29.017-2.15-37.95-3.45c-13.733-2-25.033-4.983-33.9-8.95l-3.15-1.45
		c0,3.567-0.083,6.533-0.25,8.9c-0.267,3.567-0.783,7.1-1.55,10.6l-2.35,6.8l1.25,0.15c3.767,0.1,6.5,1.1,8.2,3
		c0.6,0.7,0.917,2.2,0.95,4.5l2.25,8.15c1.067,4.567,1.45,8.467,1.15,11.7l6.3,4.65l5.25,2.65c2.4,1.133,4.017,2.117,4.85,2.95
		c0.7,0.7,1.2,1.867,1.5,3.5c0.3,1.533,0.85,2.633,1.65,3.3c4.367,3.667,7.683,6.867,9.95,9.6c2.967,3.567,3.783,5.983,2.45,7.25
		c-1.5,1.4-4.4,1.867-8.7,1.4c-4.233-0.467-7.233-1.533-9-3.2v-8.85c-0.633-2-1.383-2.75-2.25-2.25
		c-1.6,0.967-2.617,1.417-3.05,1.35l-2.5-3.6c-1-1.567-1.9-2.733-2.7-3.5l-8.1-6.55c-2-1.933-4.133-3.483-6.4-4.65l-5.5-3.15
		c-3.467-2.2-8.05-4.967-13.75-8.3c-4.067-3-6.333-6.667-6.8-11l-5.95-0.5l-10.45-2.6c-1.933-0.367-3.283-1.083-4.05-2.15
		c-0.733-1.033-1.15-1.55-1.25-1.55l0.35-0.15c-0.667-0.667-1.117-1.417-1.35-2.25c-0.433-1.533,0.167-3.733,1.8-6.6
		c1.867-3.267,2.833-5.15,2.9-5.65c0.233-1.967,0.083-3.85-0.45-5.65c-0.467-1.6-1.167-2.95-2.1-4.05
		c-0.633-0.767-1.35-1.483-2.15-2.15L-85,18.6l-5.9-4c-2-1.567-4.483-4.85-7.45-9.85c-2.833-4.8-4.783-8.883-5.85-12.25v-0.85
		l-0.1,0.45c-0.933-3.233-1.017-7.3-0.25-12.2c-5.767,5.633-11.033,9.667-15.8,12.1l-2.1,0.8c-6.7,4.233-13.4,6.15-20.1,5.75
		l-12.15-1.9l-11.175-1.2l-17.075-0.1l-1.85-0.3l-9.3-0.6l2.8,0.1c0.3,0,0.15-0.05-0.45-0.15c-0.633-0.1-0.8-0.15-0.5-0.15l6.5,0.35
		l0.05-0.1l-10.2-0.85c-0.5-0.1-0.5-0.15,0-0.15l11.45,0.6c-0.2-0.033-0.3-0.083-0.3-0.15l12.05-0.45l-0.05-0.15l-1.85,0.2v-0.3
		l-9.3-0.95l-0.65-0.2c-2.083,0.095-3.975,0.286-5.675,0.575l0.375-0.075c0.267-0.067,0.133-0.083-0.4-0.05
		c-0.567,0-0.717-0.033-0.45-0.1l4.9-0.6l-1.05-0.05L-194-7.1c-0.4,0.033-0.417-0.033-0.05-0.2l4.6-1.05l-2.6-0.2
		c-0.6-0.033-0.9-0.133-0.9-0.3h-0.3l-0.9,0.1l0.7-0.1l-3.15-0.2c-1.633,0.6-3.283,1.483-4.95,2.65c1.333-1.067,2.85-1.967,4.55-2.7
		l-6.3-0.25l6.7,0.1l2.45-0.85l-0.9-0.15l-1.8-0.6l-2.45-0.4l-2.8,0.7l2.45-0.75l-6.5-0.45l2.8,0.05c0.333,0,0.183-0.067-0.45-0.2
		c-0.6-0.1-0.75-0.15-0.45-0.15l5.45,0.55l0.4-0.1l-9.6-1l10.8,0.75l0.4-0.05l-2.75-0.4l2.75,0.35l5.05-0.65l-3.35-0.55
		c0-0.133-0.433-0.3-1.3-0.5l-1.15,0.3l1.05-0.3l-0.15-0.05l-1-0.15l-2.05,0.25l1-0.4l-5.85-0.25l2.35-0.05
		c0.3-0.033,0.183-0.083-0.35-0.15l-0.4-0.15l2.85,0.1l-2.55-0.25h-0.95c-0.525,0.238-1.05,0.505-1.575,0.8l1.275-0.8l-2.3-0.1
		c-0.333-0.033-0.333-0.083,0-0.15l0.95-0.1h-0.8l-1.15,0.35l0.95-0.35h-1.7l-1.4,0.4l0.15-0.2l0.4-0.15l-6.5,0.8l-1.75,1.4l1.5-1.3
		l0.05-0.05c1.2-1,2.55-1.867,4.05-2.6l-1.85,0.45l2.2-0.65c2.467-1.2,5.217-2.017,8.25-2.45l-2.4-0.2
		c2.767-0.433,6.3-0.483,10.6-0.15l-0.6-0.2l7.65,0.5l1.6-0.25v-0.05h0.2l3.2-0.65l-4.2-0.35l0.05-0.2l1.9,0.1l-9.3-1.1l-7.85-0.15
		c-0.6,0.033-0.9-0.033-0.9-0.2c-4.033,0.367-7.233,0.867-9.6,1.5c3.1-1,6.6-1.583,10.5-1.75l25.25,0.95l24.25-3.5
		c-0.333-0.033-0.4-0.1-0.2-0.2l10.65-2l8.7-1.1l6.6-1.55l-0.05-0.15l0.75-0.15l1.2-0.4l0.05,0.15l1.35-0.35l0.05,0.15
		c1.733-0.6,3.017-1.1,3.85-1.5l0.05,0.15c1.3-0.433,2.15-0.783,2.55-1.05l0.05,0.15l0.6-0.4l11.6-4.8l-0.4,0.5
		c-0.133,0.167,0.067,0.167,0.6,0l2.4-0.8l2.3-0.45l-0.05-0.15c0.333-0.6,0.717-0.917,1.15-0.95l0.55-0.25l-0.1-0.1l0.15-0.05
		l0.1,0.15h0.05l1.1-0.65c2.433-1.4,5.2-3.433,8.3-6.1l7.8-6.5c6.333-4.967,12.983-7.633,19.95-8c3.833-0.2,8.633,0.317,14.4,1.55
		l13.95,2.9l26.55,1.75c4.533,0.367,9.1,0.25,13.7-0.35c4.733-0.633,9.033-1.7,12.9-3.2c2.6-1,6.317-2.9,11.15-5.7
		c4.633-2.267,9.483-3.317,14.55-3.15l0.25-0.95l-0.35-1.55c0.033,0.133-0.1,0.067-0.4-0.2l-0.5-0.45l7.2-0.35l0.8-0.65v-0.9
		l-0.55-0.55c-0.033-0.433-0.267-0.717-0.7-0.85c0.733-0.233,1.5-0.633,2.3-1.2l5.3-1.7c-0.233-0.133-0.35-0.4-0.35-0.8
		c0.933-0.467,2.083-0.75,3.45-0.85l3.15,0.2l0.95,0.3c1.9,0.467,3.65,0.317,5.25-0.45l0.65-0.45l0.4-0.7l0.1-2L70.4-81l-0.9,0.025
		c0.476-0.17,0.976-0.445,1.5-0.825c1.967-1.4,3.15-2.167,3.55-2.3l0.9-0.2c2.433-0.733,4.55-1.55,6.35-2.45l0.9-0.5
		c0.467-0.433,0.7-1.317,0.7-2.65l-2,0.1l-2.05,0.7L78.4-89c-1.033,0.067-2.033-0.233-3-0.9l3.1,0.2l3.7-1.25l0.9-0.5
		c0.933-0.1,1.933-0.383,3-0.85c0.567-0.267,1.483-0.767,2.75-1.5l0.9-0.55c0.4-0.333,1-0.667,1.8-1l2.85-0.55l-2.95-0.25
		c-1.067,0.033-1.917,0.5-2.55,1.4l-1.5,0.85l0.75-0.95l0.9-0.75c0.967-0.667,2.35-1.083,4.15-1.25c1.9-0.2,3.133-0.45,3.7-0.75
		l0.75-0.5c0.4-0.933,1.317-1.85,2.75-2.75l1-0.5c1.133-1.333,1.1-1.633-0.1-0.9L100.25-101.55z"/>
</g>
</svg>

<?xml version="1.0"?>
<!DOCTYPE svg PUBLIC "-//W3C//DTD SVG 1.1//EN" "http://www.w3.org/Graphics/SVG/1.1/DTD/svg11.dtd">
<svg version='1.1' width='401px' height='225px' xmlns='http://www.w3.org/2000/svg' xmlns:xlink='http://www.w3.org/1999/xlink'>
	<g transform="translate(217.05,119.1)">
		<path d="M -38.75 51.85 L -39.05 51.45 L -38.55 53.15 Z M -64.35 32.3 L -66.15 34.95 Q -66.85 36.05 -66.9 37.85 Q -66.95 39.5 -66.4 40.85 L -62.7 41.95 Q -63.1 36.9 -64.35 32.3 Z M -99.85 -36.85 L -99.75 -37.05 L -100 -37.1 L -100.35 -37 L -100.75 -36.65 L -100.95 -36.8 L -101.45 -36.45 L -100.75 -37.25 Q -102.1 -36.6 -102.3 -36.2 L -102.7 -36 Z M -187.75 -8.7 L -189.75 -9.2 L -192.05 -9 Z M -190.95 -9.45 L -191.35 -9.55 L -195.35 -9.2 L -192.35 -9 L -191.75 -9.05 Q -191.35 -9.1 -192.15 -9.15 Q -193 -9.2 -192.6 -9.3 Z M -186.35 -10.25 L -186.35 -10.45 L -186.2 -10.4 L -182.55 -10.55 L -185.3 -10.95 L -189.35 -10.55 L -187.55 -10.2 Z M -197.75 -11.35 L -197.7 -11.5 L -197.9 -11.55 L -198.35 -11.45 Z M -192.85 -9.85 L -193.6 -10 L -195.6 -9.4 Z M -192.85 -12.05 L -193.75 -12.2 L -196.2 -11.8 L -190.75 -10.8 L -186.55 -11.3 L -190.2 -12.25 Z M -188.4 -16.95 L -188.4 -17.2 L -179.25 -16.4 L -178.45 -16.45 L -177.9 -16.9 L -180.35 -17.15 L -181.2 -17.1 L -182.4 -16.85 L -181.45 -17.1 L -182.35 -17.1 L -182.35 -17.25 L -183.05 -17.3 Q -185.3 -17 -183.95 -17.4 L -183.85 -17.4 L -184.9 -17.6 L -193.75 -17.2 L -186.6 -16.6 L -186.55 -16.75 Z M -187.65 -13.4 L -187.6 -13.7 L -182.85 -13 L -179.5 -13.15 Q -184.75 -13.25 -182.9 -13.75 L -182.75 -13.8 L -185.85 -14.3 L -188.65 -14.2 L -190.25 -14.4 L -192.9 -14.2 L -186.05 -13 L -186.05 -13.15 Z M -191.05 -14.7 L -191.1 -14.85 L -194.55 -14.45 L -194.15 -14.4 Z M -189.85 -15.35 L -190.3 -15.45 L -190.1 -15.45 L -198.5 -16.2 L -199.85 -16.2 L -202.65 -15.2 L -196.35 -14.6 L -196.3 -14.6 Q -196.5 -14.65 -196.5 -14.75 L -195.95 -14.65 Z M -182.45 -20.3 L -184.9 -19.75 Q -181.4 -19.55 -177.35 -19.65 Q -173.2 -19.7 -174.3 -20 L -175.95 -20 L -175.95 -20.25 L -180.95 -20.4 L -181.7 -20.25 Z M -186 -19.55 L -186.9 -19.45 L -184.35 -19.3 L -184.35 -19.4 L -186 -19.5 Z M -205.35 -15.3 L -203 -15.2 L -200.8 -16.1 Z M -205.15 -15.55 Q -206.05 -15.5 -205.65 -15.6 L -199.55 -16.5 L -199.4 -16.55 L -199.4 -16.65 Q -203.3 -16.45 -206.5 -15.5 L -207.1 -15.3 L -205.5 -15.3 L -204.7 -15.5 Q -204.25 -15.65 -205.15 -15.55 Z M -202.9 -17.4 L -203.8 -17.6 L -210.5 -17 Q -212.75 -16.05 -215.25 -14.3 L -208.3 -15.3 Q -204.5 -16.9 -199.05 -17.15 Z M 113.6 19.15 Q 109.1 20.1 102.85 22.5 L 91.7 27.1 L 92.25 27.45 Q 93.75 28.45 97.55 29.85 Q 101.15 31.6 103.55 34.9 L 103.85 35.75 L 104 37.25 Q 106.6 36.25 107.85 34.55 Q 113.9 26.25 113.6 19.15 Z M 100.25 -101.55 L 100.7 -102.15 L 99.8 -102 Q 96.65 -100.9 95.4 -100.9 Q 96.9 -101.4 99.8 -102.6 L 100.7 -102.85 L 105.4 -102.85 L 105.3 -103.8 L 104.4 -104.25 L 103.75 -104.9 L 104.1 -104.85 L 107.15 -104.9 L 105.9 -105 Q 105.05 -105.25 104.4 -105.9 L 109.45 -106.1 L 115.45 -107.55 L 119.9 -107.75 L 121.35 -107 Q 120.65 -109.9 120.65 -113.35 Q 120.65 -117.25 121.65 -119.1 Q 122.85 -118.15 124.6 -115.1 Q 126.05 -112.65 127.85 -112.05 L 128.95 -112.55 Q 129.65 -113 129.65 -112.05 Q 130.75 -111.95 130.6 -113.7 Q 130.4 -116.2 130.5 -116.45 Q 131.15 -117.35 131.65 -114.25 Q 132.25 -110.55 133.2 -110.25 Q 134.4 -110.4 136.6 -107.2 Q 137.05 -107.45 137.8 -106.75 Q 138.6 -106 139.2 -104.75 L 140.2 -102.5 L 141.05 -102.25 Q 141.65 -102.35 142.95 -100.6 Q 143.95 -99.25 144.4 -100.5 Q 144.75 -99.75 146.8 -97.8 Q 148.35 -96.25 148.55 -94.5 L 155.9 -86.7 L 162.6 -76.85 Q 166.45 -70.1 173.05 -63.25 L 179.05 -58.05 Q 181.35 -55.5 182.65 -51.45 L 183.1 -49.4 Q 183.2 -48 182.75 -47.55 Q 182.05 -46.85 182.15 -44.95 Q 182.3 -43.05 181.8 -42.5 L 180.35 -40.45 Q 179.5 -39.3 178.4 -39.15 L 171.55 -37.95 L 165.65 -38.5 Q 164.4 -39.65 163.95 -40.75 L 163.35 -41.65 L 162.8 -42.2 L 153.1 -47.9 Q 151.05 -48.8 148.4 -50.4 Q 146.15 -51.75 144.7 -52.2 L 133.7 -54.9 Q 130.95 -55.4 128.25 -56.55 Q 126.8 -57.1 121.9 -59.75 L 118.1 -59.8 Q 114.65 -59.2 111.9 -54.45 Q 110.8 -52.5 108.4 -47.4 L 106.6 -42.05 L 101.65 -32.55 Q 98.55 -26.7 97.75 -22.6 Q 97.45 -20.95 97.65 -18.1 Q 97.9 -15 97.75 -13.7 Q 97.55 -12.15 96.4 -8.9 Q 95.3 -5.65 95.1 -4 L 94.7 -0.15 L 95.25 2.2 Q 98.8 3.3 106.6 4.65 Q 114.75 6.05 118.6 7.15 Q 119.8 7.55 120.4 8.05 Q 123.55 10.3 124.55 14.2 Q 125.35 17.25 124.8 21.5 Q 124.6 23.25 122.45 25.35 Q 119.9 27.9 119.25 29.35 Q 115.9 37 111.35 44.6 L 111.3 44.6 L 111.1 44.8 L 105.4 46.75 Q 103.4 47.5 99.85 49.95 L 94.45 55.05 Q 89.9 59.15 88.65 58 Q 87 56.55 86.45 53.9 Q 85.9 51.5 86.35 48.65 L 73.1 55.35 Q 71.65 56.05 70.65 55.8 Q 67.8 55 62.85 52.3 Q 58.25 49.75 56.55 49.45 L 51.35 48.7 L 42.9 45.9 Q 43.45 44.1 45.1 42.45 Q 47.05 40.45 49.9 38.65 Q 53.4 36.45 56 36.15 Q 58.1 37.25 60.05 40.6 Q 62.05 44.1 63.95 45.2 Q 65.85 45.9 67.1 44.3 Q 68.9 42 69.25 41.85 L 78.1 42.3 Q 82.85 41.7 87.25 39.85 L 75.4 38.2 L 63.5 34.95 Q 58.95 33.6 56.6 33.35 Q 52.65 33 45.85 31.45 Q 40.45 30.2 40.1 30.5 L 39.9 30.25 Q 15.35 28.75 1.95 26.8 Q -18.65 23.8 -31.95 17.85 L -35.1 16.4 Q -35.1 21.75 -35.35 25.3 Q -35.75 30.65 -36.9 35.9 L -39.25 42.7 L -38 42.85 Q -32.35 43 -29.8 45.85 Q -28.9 46.9 -28.85 50.35 L -26.6 58.5 Q -25 65.35 -25.45 70.2 L -19.15 74.85 L -13.9 77.5 Q -10.3 79.2 -9.05 80.45 Q -8 81.5 -7.55 83.95 Q -7.1 86.25 -5.9 87.25 Q 0.65 92.75 4.05 96.85 Q 8.5 102.2 6.5 104.1 Q 4.25 106.2 -2.2 105.5 Q -8.55 104.8 -11.2 102.3 L -11.2 93.45 Q -12.15 90.45 -13.45 91.2 Q -15.85 92.65 -16.5 92.55 L -19 88.95 Q -20.5 86.6 -21.7 85.45 L -29.8 78.9 Q -32.8 76 -36.2 74.25 L -41.7 71.1 Q -46.9 67.8 -55.45 62.8 Q -61.55 58.3 -62.25 51.8 L -68.2 51.3 L -78.65 48.7 Q -81.55 48.15 -82.7 46.55 Q -83.8 45 -83.95 45 L -83.6 44.85 Q -84.6 43.85 -84.95 42.6 Q -85.6 40.3 -83.15 36 Q -80.35 31.1 -80.25 30.35 Q -79.9 27.4 -80.7 24.7 Q -81.4 22.3 -82.8 20.65 Q -83.75 19.5 -84.95 18.5 L -85 18.6 L -90.9 14.6 Q -93.9 12.25 -98.35 4.75 Q -102.6 -2.45 -104.2 -7.5 L -104.2 -8.35 L -104.3 -7.9 Q -105.7 -12.75 -104.55 -20.1 Q -113.2 -11.65 -120.35 -8 L -122.45 -7.2 Q -132.5 -0.85 -142.55 -1.45 L -154.7 -3.35 L -165.875 -4.55 L -182.95 -4.65 L -184.8 -4.95 L -194.1 -5.55 L -191.3 -5.45 Q -190.85 -5.45 -191.75 -5.6 Q -192.7 -5.75 -192.25 -5.75 L -185.75 -5.4 L -185.7 -5.5 L -195.9 -6.35 Q -196.65 -6.5 -195.9 -6.5 L -184.45 -5.9 Q -184.75 -5.95 -184.75 -6.05 L -172.7 -6.5 L -172.75 -6.65 L -174.6 -6.45 L -174.6 -6.75 L -183.9 -7.7 L -184.55 -7.9 Q -187.675 -7.75801 -190.225 -7.325 L -189.85 -7.4 Q -189.45 -7.5 -190.25 -7.45 Q -191.1 -7.45 -190.7 -7.55 L -185.8 -8.15 L -186.85 -8.2 L -194 -7.1 Q -194.6 -7.05 -194.05 -7.3 L -189.45 -8.35 L -192.05 -8.55 Q -192.95 -8.6 -192.95 -8.85 L -193.25 -8.85 L -194.15 -8.75 L -193.45 -8.85 L -196.6 -9.05 Q -199.05 -8.15 -201.55 -6.4 Q -199.55 -8 -197 -9.1 L -203.3 -9.35 L -196.6 -9.25 L -194.15 -10.1 L -195.05 -10.25 L -196.85 -10.85 L -199.3 -11.25 L -202.1 -10.55 L -199.65 -11.3 L -206.15 -11.75 L -203.35 -11.7 Q -202.85 -11.7 -203.8 -11.9 Q -204.7 -12.05 -204.25 -12.05 L -198.8 -11.5 L -198.4 -11.6 L -208 -12.6 L -197.2 -11.85 L -196.8 -11.9 L -199.55 -12.3 L -196.8 -11.95 L -191.75 -12.6 L -195.1 -13.15 Q -195.1 -13.35 -196.4 -13.65 L -197.55 -13.35 L -196.5 -13.65 L -196.65 -13.7 L -197.65 -13.85 L -199.7 -13.6 L -198.7 -14 L -204.55 -14.25 L -202.2 -14.3 Q -201.75 -14.35 -202.55 -14.45 L -202.95 -14.6 L -200.1 -14.5 L -202.65 -14.75 L -203.6 -14.75 Q -204.387 -14.3924 -205.175 -13.95 L -203.9 -14.75 L -206.2 -14.85 Q -206.7 -14.9 -206.2 -15 L -205.25 -15.1 L -206.05 -15.1 L -207.2 -14.75 L -206.25 -15.1 L -207.95 -15.1 L -209.35 -14.7 L -209.2 -14.9 L -208.8 -15.05 L -215.3 -14.25 L -217.05 -12.85 L -215.55 -14.15 L -215.5 -14.2 Q -213.7 -15.7 -211.45 -16.8 L -213.3 -16.35 L -211.1 -17 Q -207.4 -18.8 -202.85 -19.45 L -205.25 -19.65 Q -201.1 -20.3 -194.65 -19.8 L -195.25 -20 L -187.6 -19.5 L -186 -19.75 L -186 -19.8 L -185.8 -19.8 L -182.6 -20.45 L -186.8 -20.8 L -186.75 -21 L -184.85 -20.9 L -194.15 -22 L -202 -22.15 Q -202.9 -22.1 -202.9 -22.35 Q -208.95 -21.8 -212.5 -20.85 Q -207.85 -22.35 -202 -22.6 L -176.75 -21.65 L -152.5 -25.15 Q -153 -25.2 -152.7 -25.35 L -142.05 -27.35 L -133.35 -28.45 L -126.75 -30 L -126.8 -30.15 L -126.05 -30.3 L -124.85 -30.7 L -124.8 -30.55 L -123.45 -30.9 L -123.4 -30.75 Q -120.8 -31.65 -119.55 -32.25 L -119.5 -32.1 Q -117.55 -32.75 -116.95 -33.15 L -116.9 -33 L -116.3 -33.4 L -104.7 -38.2 L -105.1 -37.7 Q -105.3 -37.45 -104.5 -37.7 L -102.1 -38.5 L -99.8 -38.95 L -99.85 -39.1 Q -99.35 -40 -98.7 -40.05 L -98.15 -40.3 L -98.25 -40.4 L -98.1 -40.45 L -98 -40.3 L -97.95 -40.3 L -96.85 -40.95 Q -93.2 -43.05 -88.55 -47.05 L -80.75 -53.55 Q -71.25 -61 -60.8 -61.55 Q -55.05 -61.85 -46.4 -60 L -32.45 -57.1 L -5.9 -55.35 Q 0.9 -54.8 7.8 -55.7 Q 14.9 -56.65 20.7 -58.9 Q 24.6 -60.4 31.85 -64.6 Q 38.8 -68 46.4 -67.75 L 46.65 -68.7 L 46.3 -70.25 Q 46.35 -70.05 45.9 -70.45 L 45.4 -70.9 L 52.6 -71.25 L 53.4 -71.9 L 53.4 -72.8 L 52.85 -73.35 Q 52.8 -74 52.15 -74.2 Q 53.25 -74.55 54.45 -75.4 L 59.75 -77.1 Q 59.4 -77.3 59.4 -77.9 Q 60.8 -78.6 62.85 -78.75 L 66 -78.55 L 66.95 -78.25 Q 69.8 -77.55 72.2 -78.7 L 72.85 -79.15 L 73.25 -79.85 L 73.35 -81.85 L 70.4 -81 L 69.5 -80.975 Q 70.2145 -81.2305 71 -81.8 Q 73.95 -83.9 74.55 -84.1 L 75.45 -84.3 Q 79.1 -85.4 81.8 -86.75 L 82.7 -87.25 Q 83.4 -87.9 83.4 -89.9 L 81.4 -89.8 L 79.35 -89.1 L 78.4 -89 Q 76.85 -88.9 75.4 -89.9 L 78.5 -89.7 L 82.2 -90.95 L 83.1 -91.45 Q 84.5 -91.6 86.1 -92.3 Q 86.95 -92.7 88.85 -93.8 L 89.75 -94.35 Q 90.35 -94.85 91.55 -95.35 L 94.4 -95.9 L 91.45 -96.15 Q 89.85 -96.1 88.9 -94.75 L 87.4 -93.9 L 88.15 -94.85 L 89.05 -95.6 Q 90.5 -96.6 93.2 -96.85 Q 96.05 -97.15 96.9 -97.6 L 97.65 -98.1 Q 98.25 -99.5 100.4 -100.85 L 101.4 -101.35 Q 103.1 -103.35 101.3 -102.25 Z" fill="#FAF643"/>
	</g>
</svg>
